X:1
T:Six Cello Suites
T:Cello Suite No. 2 in D minor
T:Six Cello Suites
T:No. 2 in D minor, BWV 1008
T:Johann Sebastian Bach
T:OpenScore (CC0)
T:OpenScore (CC0)
T:OpenScore (CC0)
T:OpenScore (CC0)
C:Johann Sebastian Bach
Z:OpenScore (CC0)
%%score ( 1 2 3 4 )
L:1/8
Q:1/4=54
M:3/4
K:F
V:1 bass nm="Violoncello" snm="Vc."
V:2 bass 
V:3 bass 
V:4 bass 
V:1
"^Prélude" D,F, A,2- A,/(F,/E,/D,/) | (^C,/E,/G,/A,/) B,2- B,/(A,/G,/F,/) | %2
 (E,/G,/B,/^C/) E>B, (A,/G,/F,/E,/) | (F,/G,/A,/F,/) (D,C,B,,A,,) | %4
 (B,,/D,/F,/A,/) D>C (B,/A,/G,/F,/) | (E,/G,/B,/D/) C/A,/B,/G,/ F,/E,/G,/B,,/ | %6
 (A,,/C,/E,/G,/) C>B, (A,/G,/F,/E,/) | (D,/F,/A,/C/) B,/G,/A,/F,/ (E,/F,/A,/F,/) | %8
 (G,,/B,,/D,/F,/) B,>A, (G,/F,/E,/G,/) | (A,,/C,/E,/G,/) (C/A,/E,/G,/) (F,/A,/D,/_E,/) | %10
 (D,/A,,/B,,/D,/) (G,/B,/A,/C/) B,/G,/D/F,/ | (E,/=B,,/C,/E,/) G,/D,/E,/C,/ _B,,/G,,/E,/B,,/ | %12
 F,,A,, C,2- C,/(B,,/A,,/G,,/) | (^F,,/A,,/B,,/C,/) (D,,/C,/B,,/A,,/) (^F,/_E,/D,/C,/) | %14
 (B,,/A,,/G,,/B,,/) D,2- D,/C,/B,,/A,,/ | (^G,,/=B,,/C,/D,/) (E,,/D,/C,/B,,/) (^G,/=F,/E,/D,/) | %16
 (C,/=B,,/A,,/C,/) F,/E,/F,/^G,/ A,/F,/D,/C,/ | (=B,,/D,/^G,/=B,/) D>C (=B,/A,/^G,/A,/) | %18
 (C,/E,/A,/C/) E>C (=B,/A,/^G,/A,/) | (D,/F,/A,/D/) F>E (D/C/=B,/D/) | %20
 E,/(D/C/=B,/) A,/(C/B,/A,/) D,/(B,/A,/^G,/) | C,/(A,/=G,/F,/) ^C,/(G,/F,/E,/) D,/(F,/E,/D,/) | %22
 ^G,,/(D,/E,/F,/) =B,/(F,/E,/D,/) ^G,,/(D,/C,/=B,,/) | %23
 (A,,/=B,,/C,/E,/) A,/=B,/C/A,/ E,/C,/A,,/=G,,/ | (^F,,/A,,/C,/D,/) _E,>D, (C,/_B,,/C,/)A,/ | %25
 (B,,/A,,/B,,/)D,/ G,,/(_E,/F,/G,/) A,,/(G,/F,/E,/) | %26
 (D,/C,/D,/)F,/ B,,/(G,/A,/B,/) ^C,/(B,/A,/G,/) | (F,/E,/F,/)A,/ D,/(B,/C/D/) E,/(D/C/B,/) | %28
 (A,/G,/A,/)C/ F,/(D/E/F/) G,/(F/E/D/) | ^C/(G,/F,/E,/) A,,/(E,/F,/G,/) ^C/(_B,/A,/G,/) | %30
 (F,/G,/A,/)^C/ D/(A,/G,/F,/) A,/(F,/E,/D,/) | ^G,/(D,/E,/F,/) A,,/(F,/E,/D,/) ^G,/(=F,/E,/D,/) | %32
 (^C,/=B,,/C,/)E,/ A,/(E,/C,/E,/) A,,/(G,/F,/E,/) | (F,/E,/F,/)A,/ D/(A,/F,/A,/) D,/(C/B,/A,/) | %34
 (G,/F,/G,/)^C/ E/C/G,/C/ A,,/(G,/F,/E,/) | D,/A,/D/E/ F/D/A,/F,/ D,/C/B,/A,/ | %36
 (G,/A,/B,/)D,/ _E,/F,/G,/A,/ B,/G,/_E/G,/ | (F,/G,/A,/)^C,/ D,/E,/F,/G,/ A,/F,/D/F,/ | %38
 (E,/F,/G,/)B,,/ A,,/=B,,/^C,/D,/ E,/_B,,/G,/B,,/ | ^C,,A,, G,2- G,/(B,/A,/G,/) | %40
 (F,/E,/D,/)E,/ F,/D,/A,/F,/ D/A,/F,/D,/ | ^G,,F, D2- D/F/E/D/ | %42
 ^C/=B,/A,/B,/ C/A,/D/A,/ E/A,/F/A,/ | G/E/^C/E/ A,/^C/E/F/ G/F/G/E/ | %44
 F/D/^C/D/ A,/^C/D/E/ F/E/F/D/ | E/^C/=B,/C/ A,/B,/C/D/ E/D/E/C/ | %46
 D/(=B,/A,/B,/) (F,/^G,/=B,/)^C/ D/C/D/B,/ | !fermata!^C2 z2 z2 | %48
 _B,/(G,/^F,/G,/) _E,/G,/D,/G,/ E,/G,/B,/D,/ | (^C,/=E,/G,/A,/) B,>A, (G,/^F,/G,/)E/ | %50
 =F,/D/B,/G,/ A,/F,/E,/G,/ F,/D,/^C,/E,/ | D,/B,,/A,,/G,,/ (^F,,/A,,/C,/_E,/) D,/C,/B,,/A,,/ | %52
 B,,/G,,/^F,,/G,,/ _E,,/G,,/D,,/G,,/ (E,,/G,,/B,,/)D,,/ | %53
 G,>(F, E,/D,/^C,/=B,,/ A,,/G,,/F,,/E,,/) | (D,,/A,,/D,/E,/) (F,/E,/D,/C,/ B,,/A,,/G,,/F,,/) | %55
 (E,,/A,,/^C,/E,/) (G,/F,/E,/D,/ ^C,/=B,,/A,,/G,,/) | (F,,/A,,/D,/F,/) A,/D,/F,/A,/ D/B,/C/A,/ | %57
 G,,/D,/G,/A,/ B,/(G,/^F,/G,/) _E/G,/D/G,/ | ^C6 | D6 | D6 | ^C6 | D6 |] %63
[K:F][M:4/4][Q:1/4=66]"^Allemande" A,/ | %64
 A,(B,/A,/) (G,/F,/)(E,/D,/) (D,/^C,/)(D,/E,/) A,,B,,/G,,/ | %65
 F,,/A,,/D,/F,,/ E,,^C, D,>E, F,/G,/A,/B,/ | C(D/_E/) (D/C/)(B,/A,/) (C/B,/)(A,/G,/) D>=F, | %67
 (E,/G,/B,/D/) (C/B,/)(A,/G,/) (B,/A,/)(G,/F,/) A,>A, | %68
 =B,/(F,/E,/D,/) E,/(^C/D/C/) D>E (F/E/D/E/) | %69
 (D/C/=B,/C/) (B,/A,/^G,/A,/) (G,^F,/E,/) (E/C/A,/=G,/) | %70
 =F,/A,/F,/D,/ =B,,/F,/D,/B,,/ (^G,,/B,,/E,/^G,/) =B,/D/C/B,/ | %71
 (C/A,/F,/E,/) (D,/F,/E,/D,/) T^G,>A, =B,/D/E,/D,/ | C,/E,/A,/D/ =B,>A, A, x x2 | %73
 =D,/(^G,/A,/=B,/ A,/^G,/^F,/E,/) A, x x2 | =B, x x2 D/=B,/C/A,/ E,^G, | %75
 A,,>^C, E,/=G,/F,/E,/ F,/A,/D/^G,/ A,3/2 :: E,/ | %77
 E,>F, (=G,/E,/)(F,/A,/) ^C,/D,/E,/B,,/ TA,,>G,, | %78
 F,,/(A,/F,/D,/) G,/(=B,,/^C,/)A,/ (G,/F,/E,/D,/) ^F,/(D,/_E,/)(=C,/ | %79
 B,,/)G,/(A,,/G,,/ ^F,,/)(A,,/D,/)C/ B,/(^F,/G,/)B,/ (D/A,/)(B,/G,/) | %80
 (_E,/D,/E,/)G,/ (C/A,/)(B,/G,/) (D,/C,/D,/)G,/ (B,/^F,/)(G,/_E,/) | %81
 (C,/B,,/C,/)B,/ (A,/C/_E/)G,/ T^F,G,/A,/ D,_E,/C,/ | B,,/D,/G,/B,,/ D,,^F, G,>A, B,/D/G,/=F,/ | %83
 TE,>(F, G,/)(E,/C,/)(B,,/ A,,/)F,/(G,,/F,,/) E,,/G,/A,/B,/ | %84
 B,/(A,/G,/F,/) (A,/E,/)(F,/D,/) B,,/(D,/F,/A,/) (D/A,/)(B,/G,/) | %85
 A,,/(G,/^C/D/) E/(G,/A,/)(E,/ F,/)(D,/B,,/)(D,/ ^G,,/)F,/E,/D,/ | %86
 D,/(^C,/=B,,/A,,/) (=C,/A,,/^F,,/)D,/ (C,/A,,/=B,,/)D,/ =F,/(D,/^G,,/)D,/ | %87
 (^C,/E,/G,/)B,/ E/(A,/B,/)(G,/ F,/)(^C,/D,/)(^G,,/ A,,)^C, | %88
 D,,/(D/=C/)(A,/ B,/)(G,/E,/)(^C/ D/)A,/F,/D,/ D,,3/2 :|[K:F][M:3/4][Q:1/4=90]"^Courante." D/ | %90
 D/A,/F,/A,/ D,/F,/G,/A,/ B,/A,/B,/G,/ | G,2 x4 | F,/D,/E,/=C,/ (B,,/A,,/B,,/)A,/ G,/F,/E,/D,/ | %93
 ^C,/E,/(A,,/=B,,/ ^C,/D,/E,/F,/ G,/)_B,/A,/E,/ | F,/A,/(D,/E,/ F,/G,/A,/B,/ C/)B,/D/C/ | %95
 C2- C/B,/A,/G,/ (F,/_E,/)(D,/E,/) | D,/(B,,/A,,/B,,/) D,/B,,/=E,/B,,/ F,/B,,/G,/B,,/ | %97
 (E,,/G,,/C,/)D,/ E,/F,/G,/A,/ (B,/A,/)(B,/G,/) | A,/(F,/E,/F,/) A,/F,/B,/F,/ C/F,/D/F,/ | %99
 (^C,/E,/A,/)=B,/ ^C/D/E/F/ (G/F/)(G/E/) | (D,/A,/F/)E/ D/=C/D/C/ =B,/A,/B,/A,/ | %101
 (^G,/A,/=B,/)E,/ F,/E,/F,/D,/ E,/C,/D,/=B,,/ | C,/(A,/=B,/C/ B,/A,/^G,/A,/) D,/A,/E,/A,/ | %103
 F,/(A,/=B,/C/ B,/A,/^G,/A,/) F,/A,/E,/A,/ | ^D,/(A,/=B,/C/ B,/A,/^G,/A,/) E,/A,/E,/^G,/ | %105
 A,/E,/^C,/E,/ A,,/C,/E,/^G,/ A,3/2 :: E/ | E/^C/A,/C/ E,/F,/G,/A,/ (B,/G,/)(^C/G,/) | %108
 D2- D/A,/D/E/ F/D/A,/=C/ | =B,/F,/D,/F,/ G,,/D,/F,/G,/ =B,/F,/D/F,/ | %110
 E,/G,/(C,/D,/ E,/F,/G,/A,/ _B,/)D/C/G,/ | A,/ x11/2 | D,2- D,/=E,/F,/G,/ A,/B,/C/D/ | %113
 E,/(B,,/A,,/G,,/) A,,/F,/G,,/F,,/ (C,,/G,,/F,/)E,/ | F,/(A,/B,/A,/ G,/F,/E,/F,/) G,/E,/F,/D,/ | %115
 ^C,/G,/=B,,/G,/ A,,/G,/B,,/G,/ C,/G,/A,,/G,/ | F,/D,/F,/A,/ D/A,/D/E/ F/A,/F,/D,/ | %117
 G,,/(D,/G,/A,/) B,/G/A,/F/ G,/E/F,/D/ | ^C/D/E/C/ A,/C/B,/C/ A,/C/G,/C/ | %119
 F,/(D/E/F/ E/D/^C/D/) G,/D/A,/D/ | B,/(D/E/F/ E/D/^C/D/) B,/D/A,/D/ | %121
 ^G,/(D/E/F/ E/D/^C/D/) A,/D/A,/^C/ | D/A,/F,/A,/ D,/F,/A,,/D,/ D,,3/2 :| %123
[K:F][M:3/4][Q:1/4=60]"^Sarabande" D,>E, TE,3 D,/E,/ | F,3 E,D,C, | %125
 B,,G, PF,(E,/F,/ G,/A,/B,/D,/) | T^C,3 =B,,A,,G,, | D,>E, TE,3 D,/E,/ | F,3 D,E,F, | %129
 G,(B,/A,/) (C/B,/)(A,/G,/) DF, | TE,3 D,C,B,, | F,(G,/A,/) A,3 (G,/F,/) | G,(A,/B,/) B,3 (C/D/) | %133
 E,F, C,,G,, F,E, | F,2 F,,4 :: A,2 TA,3 B, | C(B,/A,/) T^F,>_E, D,C, | B,,G, A,,^F, _ED | %138
 TB,3 A,G,=F, | E,(B,,A,,)F,G,A, | D,(_A,,G,,)_E,F,G, | ^C,B, A,(G,/F,/) =E,(F,/D,/) | %142
 ^C,(E,/A,/) A,,>G, F,E, | D,(E,/F,/) F,3 (E,/D,/) | E,(F,/G,/) G,3 (A,/B,/) | %145
 A,(^C/D/) D,(E,/F,/4G,/4) TF,(E,/D,/) | D,2 D,,/(A,,/=B,,/^C,/ D,/E,/F,/G,/) | %147
 (A,/=B,/C/B,/) C3 (=B,/A,/) | (=B,/^C/D/C/) D3 (E/F/) | (D/^C/D/)F,/ A,,E, (D^C) | D2 D,,4 :| %151
[K:F][M:3/4]S[Q:1/4=120]"^Menuet I" A,4 B,2 | (B,A,)B,G, A,2 | D,2 G,2 F,E, | (F,E,D,)^C,=B,,A,, | %155
 A,4 B,2 | (B,A,)B,G, C2 | A,2 D2 E2 | ^C6 :: E4 (DE/F/) | (ED^CEA,)G, | (A,2 D2) ^C2 | (GFEFD)C | %163
 B,4 C2 | A,G,A,F, D2 | C2 B,A,G,A, | F,E,F,A,G,B, | TA,4 B,2 | CB,CA, T^F,2 | D2 C2 (B,A,) | %170
 (CB,A,B,G,)B, | (D2 ^C2) D2 | (G,F,)G,E, F,2 | G,,G, TE,3 D, | D,6!dacoda! :: %175
[K:D][M:3/4][Q:1/4=120]"^Menuet II" TF,2 D,E,F,G, | A,2 F,,2 A,2 | (G,,B,,) E,2 G,2 | %178
 (D,C,B,,C,A,,G,,) | F,,(DCB,A,G,) | (B,A,G,F,E,D,) | (C,D,) G,2 (F,G,/A,/) | TE,6 :: C2 (EDCB,) | %184
 C2 G,,2 C2 | (F,A,) D2 F2 | (B,A,)(G,F,)(G,B,) | E,(DCB,)(C^A,) | D,(B,=A,G,F,E,) | %189
 (G,F,E,D,C,D,) | (B,,C,D,E,F,G,) | (A,G,F,G,A,B,) | =C2 ^D,,2 C2 | (B,A,=CB,A,G,) | %194
 (F,G,)(A,F,)(G,E,) | T^C,2 (A,,B,,C,D,) | (E,F,G,B,) A,2 | (G,F,)(E,D,)(E,C,) | D,6!D.C.! :| %199
[K:F][M:3/8]O[Q:1/4=99]"^Gigue" A, | D,2 B, | ^C,2 G, | F,/E,/F,/G,/A, | D,2 D | (E,/F,/G,)B, | %205
 (C,/D,/E,)C | A,/G,/A,/B,/C/A,/ | TF,2 A, | (=B,,G,)^C, | (D,F,/)(=C,/_B,,/A,,/) | (G,,_E,)A,, | %211
 (B,,D,/)(A,,/G,,/F,,/) | (=E,,^C,)B, | A,(G,/F,/E,/D,/) | (E,/F,/G,/E,/F,/D,/) | (E,A,,)C | %216
 (C/D/_E/C/D/A,/) | B,2 B, | (B,/C/D/B,/C/G,/) | A,2 A, | (=B,/C/)(D/B,/)(C/A,/) | %221
 (D/E/)(F/D/)(E/C/) | (=B,/C/)(D/B,/)(C/A,/) | E2 ^G, | (A,/=B,/)(C/A,/)(D/B,/) | %225
 (A,/=B,/)(C/A,/)(D/B,/) | (A,/=B,/)(C/A,/)(D/B,/) | (A,/=B,/)(C/A,/)(D/B,/) | F(E/D/C/=B,/) | %229
 C,,/(E/D/C/)(=B,/^G,/) | (A,/F,/)(E,/D,/)(E,/^C,/) | A,,2 :: C | F,2 D | E,2 B, | A,/G,/A,/B,/C | %236
 F,2 A, | (D,/E,/F,/)D,/C,/=B,,/ | (G,/A,/G,/)F,/E,/D,/ | (E,/D,/E,/)F,/G,/E,/ | C,2 E, | %241
 (^F,/G,/A,/)C,/B,,/A,,/ | (B,,/D,/G,/)B,,/A,,/G,,/ | (^F,,/A,,/C,/)_E,/D,/C,/ | %244
 (B,,/A,,/B,,/)D,/G,/B,/ | (_A,/G,/A,/)^F,/G,/_E/ | D,(G,^F,) | G,/(_E,/D,/)(C,/D,/)B,,/ | %248
 G,,2 B, | B,2 x | (C,/D,/E,/)C,/D,/B,,/ | (A,,/B,,/C,/)A,,/B,,/G,,/ | F,,2 A, | A,2 x | %254
 (B,,/C,/D,/)B,,/C,/A,,/ | (G,,/A,,/B,,/)G,,/A,,/F,,/ | E,,2 G, | (A,,/=B,,/^C,/)D,/E,/G,/ | %258
 (F,/G,/A,/)^C/D/F,/ | (E,/F,/G,/)A,/B,/D,/ | (^C,/D,/E,/)A,,/B,,/G,,/ | (D,/E,/)(F,/D,/)(G,/E,/) | %262
 (D,/E,/)(F,/D,/)(G,/E,/) | (D,/E,/)(F,/D,/)(G,/E,/) | (D,/E,/)(F,/D,/)(G,/E,/) | %265
 ^C,/(B,/A,/G,/F,/E,/) | F,,/(A,/G,/F,/)(E,/^C,/) | D,/(B,,/A,,/G,,/)A,,/F,,/ | %268
 D,,/A,,/D,/E,/F,/D,/ | (_E,/F,/)(G,/E,/)(F,/D,/) | (G,/A,/)(B,/G,/)(A,/F,/) | %271
 (_E,/F,/)(G,/E,/)(F,/D,/) | ^C2 (D/=C/) | (B,/A,/G,/F,/E,/D,/) | (^C,/=B,,/A,,/G,,/F,,/E,,/) | %275
 D,,/F,,/A,,/D,/F,/A,/ | D2 :| %277
V:2
 x6 | x6 | x6 | x6 | x6 | x6 | x6 | x6 | x6 | x6 | x6 | x6 | x6 | x6 | x6 | x6 | x6 | x6 | x6 | %19
 x6 | x6 | x6 | x6 | x6 | x6 | x6 | x6 | x6 | x6 | x6 | x6 | x6 | x6 | x6 | x6 | x6 | x6 | x6 | %38
 x6 | x6 | x6 | x6 | x6 | x6 | x6 | x6 | x6 | G,,2 x4 | x6 | x6 | x6 | x6 | x6 | ^C,,2 x4 | x6 | %55
 x6 | x6 | x6 | A,,6 | A,,6 | A,,6 | A,,6 | D,,6 |][K:F][M:4/4] x/ | D,, x7 | x4 D,,3/2 x5/2 | %66
 D,, x7 | x6 F,>F, | x4 D,3/2 x5/2 | x8 | E/ x3/2 D,/ x11/2 | x8 | %72
 x2 E,2 ^D,-D,/4(E,/4^F,/4^G,/4 A,/4=B,/4C/4=D/4C/4B,/4C/4A,/4) | x4 C, x3 | ^G,, x3 A,, x3 | %75
 x15/2 :: x/ | A,,3/2 x13/2 | x8 | x8 | x8 | x4 C, x3 | x4 G,,3/2 x5/2 | B,,3/2 x13/2 | x8 | x8 | %86
 x8 | x8 | x15/2 :|[K:F][M:3/4] x/ | x6 | ^C,2- C,/D,/E,/F,/ G,/F,/G,/E,/ | x6 | x6 | x6 | %95
 A,,2 x4 | x6 | x6 | x6 | x6 | x6 | x6 | x6 | x6 | x6 | x11/2 :: x/ | x6 | F,2 x4 | x6 | x6 | %111
 F,/(C/B,/A,/ G,/F,/_E,/D,/ E,/)C/F,/E,/ | B,,2 x4 | x6 | x6 | x6 | x6 | x6 | x6 | x6 | x6 | x6 | %122
 x11/2 :|[K:F][M:3/4] D,2 A,,4 | D,,3 x3 | x6 | x6 | F,,2 x4 | D,,3 x3 | x6 | C,,3 x3 | %131
 A,,2 B,,3 x | B,,2 G,,4 | x6 | x6 :: F,_E, E,3 x | D,2 x4 | x6 | G,,3 x3 | x6 | x6 | x6 | x6 | %143
 B,,2 G,,4 | G,,2 ^C,,2 x2 | F,, z z G,, A,,2 | x6 | F,2 ^F,3 x | G,,2 ^G,3 x | x6 | x6 :| %151
[K:F][M:3/4] D,4 x2 | C, x5 | B,,2 x4 | A,, x5 | D,4 x2 | E, x5 | F,2 B,,2 G,,2 | A,,6 :: A,4 x2 | %160
 G, x5 | F,4 E,2 | D, x5 | (G,2 F,2) E,2 | F, x3 B,,2 | A,,2 x4 | x6 | ^F,4 z2 | _E, x5 | %169
 B,,2 C,2 D,2 | G,, x5 | G,2 x2 F,2 | ^C, x3 D,2 | x2 A,,3 x | D,,6 ::[K:D][M:3/4] x6 | x6 | x6 | %178
 x6 | x6 | x6 | x6 | A,,6 :: x6 | x6 | x6 | x6 | x6 | x6 | x6 | x6 | x6 | x6 | x6 | x6 | x6 | x6 | %197
 x6 | x6 :|[K:F][M:3/8] x | x3 | x3 | x3 | x3 | x3 | x3 | x3 | x3 | x3 | x3 | x3 | x3 | x3 | x3 | %214
 A,,3 | x3 | D,3 | D,G,,D, | E,3 | F,F,,F, | D,D,D, | D,D,D, | D,D,D, | D,2 x | C, x2 | D, x2 | %226
 E, x2 | F, x2 | ^G, x2 | x3 | x3 | x2 :: x | x3 | x3 | x3 | x3 | x3 | x3 | x3 | x3 | x3 | x3 | %243
 x3 | x3 | x3 | x3 | x3 | x3 | (=E,/F,/G,/)E,/F,/D,/ | x3 | x3 | x3 | (D,/E,/F,/)D,/E,/C,/ | x3 | %255
 x3 | x3 | x3 | x3 | x3 | x3 | F,, x2 | G,, x2 | A,, x2 | B,, x2 | x3 | x3 | x3 | x3 | G,,G,,G,, | %270
 G,,G,,G,, | G,,G,,G,, | G,,2 x | x3 | x3 | x3 | x2 :| %277
V:3
 x6 | x6 | x6 | x6 | x6 | x6 | x6 | x6 | x6 | x6 | x6 | x6 | x6 | x6 | x6 | x6 | x6 | x6 | x6 | %19
 x6 | x6 | x6 | x6 | x6 | x6 | x6 | x6 | x6 | x6 | x6 | x6 | x6 | x6 | x6 | x6 | x6 | x6 | x6 | %38
 x6 | x6 | x6 | x6 | x6 | x6 | x6 | x6 | x6 | E,2 x4 | x6 | x6 | x6 | x6 | x6 | B,,2 x4 | x6 | x6 | %56
 x6 | x6 | G,6 | F,6 | E,6 | E,6 | F,6 |][K:F][M:4/4] x/ | A,, x7 | x4 A,,3/2 x5/2 | A,, x7 | x8 | %68
 x8 | x8 | x8 | x8 | x8 | x4 E,(=F,/E,/) (D,/C,/)(=B,,/A,,/) | %74
 D,(E,/F,/) (E,/D,/)(C,/=B,,/) E, x3 | x15/2 :: x/ | ^C3/2 x13/2 | x8 | x8 | x8 | x8 | x8 | x8 | %84
 x8 | x8 | x8 | x8 | x15/2 :|[K:F][M:3/4] x/ | x6 | A,2 x4 | x6 | x6 | x6 | F,2 x4 | x6 | x6 | x6 | %99
 x6 | x6 | x6 | x6 | x6 | x6 | x11/2 :: x/ | x6 | x6 | x6 | x6 | x6 | x6 | x6 | x6 | x6 | x6 | x6 | %118
 x6 | x6 | x6 | x6 | x11/2 :|[K:F][M:3/4] x6 | A,,3 x3 | x6 | x6 | A,,2 A,,4 | A,,3 x3 | x6 | %130
 G,,3 x3 | x2 D,3 x | x2 F,4 | x6 | x6 :: x6 | x6 | x6 | D,3 x3 | x6 | x6 | x6 | x6 | x6 | %144
 x2 B,,3 x | A,, x5 | x6 | x6 | D,2 x4 | x6 | x6 :|[K:F][M:3/4] F,4 x2 | E, x5 | x6 | x6 | F,4 x2 | %156
 x6 | x2 F,2 G,2 | E,6 :: x6 | x6 | x6 | x6 | x6 | x4 E,2 | F,2 x4 | x6 | x6 | x6 | G,2 G,2 x2 | %170
 D, x5 | x6 | x6 | x6 | A,,6 ::[K:D][M:3/4] x6 | x6 | x6 | x6 | x6 | x6 | x6 | x6 :: x6 | x6 | x6 | %186
 x6 | x6 | x6 | x6 | x6 | x6 | x6 | x6 | x6 | x6 | x6 | x6 | x6 :|[K:F][M:3/8] x | x3 | x3 | x3 | %203
 x3 | x3 | x3 | x3 | x3 | x3 | x3 | x3 | x3 | x3 | x3 | x3 | x3 | x3 | x3 | x3 | x3 | x3 | x3 | %222
 x3 | x3 | E, x2 | x3 | x3 | x3 | x3 | x3 | x3 | x2 :: x | x3 | x3 | x3 | x3 | x3 | x3 | x3 | x3 | %241
 x3 | x3 | x3 | x3 | x3 | x3 | x3 | x3 | x3 | x3 | x3 | x3 | x3 | x3 | x3 | x3 | x3 | x3 | x3 | %260
 x3 | A,, x2 | x3 | x3 | x3 | x3 | x3 | x3 | x3 | x3 | x3 | x3 | =E,2 x | x3 | x3 | x3 | x2 :| %277
V:4
 x6 | x6 | x6 | x6 | x6 | x6 | x6 | x6 | x6 | x6 | x6 | x6 | x6 | x6 | x6 | x6 | x6 | x6 | x6 | %19
 x6 | x6 | x6 | x6 | x6 | x6 | x6 | x6 | x6 | x6 | x6 | x6 | x6 | x6 | x6 | x6 | x6 | x6 | x6 | %38
 x6 | x6 | x6 | x6 | x6 | x6 | x6 | x6 | x6 | x6 | x6 | x6 | x6 | x6 | x6 | x6 | x6 | x6 | x6 | %57
 x6 | x6 | x6 | x6 | x6 | A,,6 |][K:F][M:4/4] x/ | F, x7 | x8 | ^F, x7 | x8 | x8 | x8 | x8 | x8 | %72
 x8 | x8 | x8 | x15/2 :: x/ | x8 | x8 | x8 | x8 | x8 | x8 | x8 | x8 | x8 | x8 | x8 | x15/2 :| %89
[K:F][M:3/4] x/ | x6 | x6 | x6 | x6 | x6 | x6 | x6 | x6 | x6 | x6 | x6 | x6 | x6 | x6 | x6 | %105
 x11/2 :: x/ | x6 | x6 | x6 | x6 | x6 | x6 | x6 | x6 | x6 | x6 | x6 | x6 | x6 | x6 | x6 | x11/2 :| %123
[K:F][M:3/4] x6 | x6 | x6 | x6 | x6 | x6 | x6 | x6 | x6 | x6 | x6 | x6 :: x6 | x6 | x6 | x6 | x6 | %140
 x6 | x6 | x6 | x6 | x6 | D, z x4 | x6 | x6 | x6 | x6 | x6 :|[K:F][M:3/4] x6 | x6 | x6 | x6 | x6 | %156
 x6 | x6 | x6 :: x6 | x6 | x6 | x6 | x6 | x6 | x6 | x6 | x6 | x6 | x6 | x6 | x6 | x6 | x6 | x6 :: %175
[K:D][M:3/4] x6 | x6 | x6 | x6 | x6 | x6 | x6 | x6 :: x6 | x6 | x6 | x6 | x6 | x6 | x6 | x6 | x6 | %192
 x6 | x6 | x6 | x6 | x6 | x6 | x6 :|[K:F][M:3/8] x | x3 | x3 | x3 | x3 | x3 | x3 | x3 | x3 | x3 | %209
 x3 | x3 | x3 | x3 | x3 | x3 | x3 | x3 | x3 | x3 | x3 | x3 | x3 | x3 | x3 | x3 | x3 | x3 | x3 | %228
 x3 | x3 | x3 | x2 :: x | x3 | x3 | x3 | x3 | x3 | x3 | x3 | x3 | x3 | x3 | x3 | x3 | x3 | x3 | %247
 x3 | x3 | x3 | x3 | x3 | x3 | x3 | x3 | x3 | x3 | x3 | x3 | x3 | x3 | x3 | x3 | x3 | x3 | x3 | %266
 x3 | x3 | x3 | x3 | x3 | x3 | x3 | x3 | x3 | x3 | x2 :| %277

